X:1
T:Henry My Son
M:4/4
L:1/4
K:C
 E E/2E/2 E| E D/2 C3/2| G/2 A3/2 E| G2 z| E E E| E D C| G2 D/2E/2|\
 C z E/2E/2| E z D| D/2C/2 z c/2c/2| c z B| B/2A/2 z2|
M:4/4
 G/2G/2G/2G/2-G/2 z G/2| G/2G/2G/2 G/2- G F|
M:4/4
 E C D B,| C2 z2|
